X:49
M:none
L:1/4
K:D
D | F E D | A2 B3/4 A/4 | F E D | !accent!F !accent!E z E | F F A | d3/2 e/ d | c d B | !accent!B !accent!A z A | A B c | d2 c3/4 d/4 | e3/2 d/ e | f d d3/4.- d/4 | d3/2 c/ B | (A d) c | d3 || A2 F | F G A | B2 B | d2 d3/4 d/4 | d c B | A2 c3/4 c/4 | d d c3/4 c/4 | d d e3/4 e/4 | f d c | d2 !sintro!F3/4 F/4 | A G E | D2 !eintro!|]
